X: 20574
T: John O'Connor
R: jig
M: 6/8
K: Gmajor
D|:GAG FED|E2F G2A|B2G c2A|B2G c2A|
Bcd E2E|ABG FED|EFG AFD|G3 [1 G2D:|2 GBc||
|:d2d def|g3 g3|B2B Bcd|e3 efg|
dcB cde|d^cd D2D|EFG AFD|G3 [1 GBc:|2 G3||

